teeny/solid/arrow-down-circle.svg

<svg width="15" height="15" viewBox="0 0 15 15" fill="none" xmlns="http://www.w3.org/2000/svg">
<path fill-rule="evenodd" clip-rule="evenodd" d="M7.50005 0C11.6422 1.81058e-07 15 3.35786 15 7.5C15 11.6421 11.6422 15 7.50005 15C3.35791 15 4.55953e-05 11.6421 4.57764e-05 7.5C4.59574e-05 3.35786 3.35791 -1.81058e-07 7.50005 0ZM10.2071 8.49995L7.49997 11.2071L4.79286 8.49995L5.49997 7.79285L7.00005 9.29292V4H8.00005V9.29277L9.49997 7.79285L10.2071 8.49995Z" fill="black"/>
</svg>

<svg viewBox="0 0 15 15" xmlns="http://www.w3.org/2000/svg"><path fill-rule="evenodd" d="M7.5 0c4.14 0 7.49 3.35 7.49 7.5 0 4.14-3.36 7.5-7.5 7.5 -4.15 0-7.51-3.36-7.51-7.5 0-4.15 3.35-7.5 7.5-7.5Zm2.7 8.49l-2.71 2.7 -2.71-2.71 .7-.71 1.5 1.5v-5.3h1v5.29l1.49-1.5 .7.7Z"/></svg>
